public/res/img/soc/sketchfab.svg

<?xml version="1.0" encoding="UTF-8" standalone="no"?>
<svg
   role="img"
   focusable="false"
   aria-hidden="true"
   viewBox="0 0 14 14"
   version="1.1"
   id="svg4"
   sodipodi:docname="s_sketchfab.svg"
   inkscape:version="1.3.2 (091e20e, 2023-11-25, custom)"
   xmlns:inkscape="http://www.inkscape.org/namespaces/inkscape"
   xmlns:sodipodi="http://sodipodi.sourceforge.net/DTD/sodipodi-0.dtd"
   xmlns="http://www.w3.org/2000/svg"
   xmlns:svg="http://www.w3.org/2000/svg"
   xmlns:rdf="http://www.w3.org/1999/02/22-rdf-syntax-ns#"
   xmlns:cc="http://creativecommons.org/ns#"
   xmlns:dc="http://purl.org/dc/elements/1.1/">
  <metadata
     id="metadata10">
    <rdf:RDF>
      <cc:Work
         rdf:about="">
        <dc:format>image/svg+xml</dc:format>
        <dc:type
           rdf:resource="http://purl.org/dc/dcmitype/StillImage" />
        <dc:title />
      </cc:Work>
    </rdf:RDF>
  </metadata>
  <defs
     id="defs8" />
  <sodipodi:namedview
     pagecolor="#ffffff"
     bordercolor="#666666"
     borderopacity="1"
     objecttolerance="10"
     gridtolerance="10"
     guidetolerance="10"
     inkscape:pageopacity="0"
     inkscape:pageshadow="2"
     inkscape:window-width="1920"
     inkscape:window-height="1027"
     id="namedview6"
     showgrid="false"
     inkscape:pagecheckerboard="true"
     inkscape:zoom="38.789858"
     inkscape:cx="6.7672328"
     inkscape:cy="6.9219124"
     inkscape:current-layer="svg4"
     inkscape:showpageshadow="2"
     inkscape:deskcolor="#d1d1d1"
     inkscape:window-x="-8"
     inkscape:window-y="-8"
     inkscape:window-maximized="1" />
  <path
     id="path1"
     style="fill:#ffffff;stroke-width:1.5;stroke-linejoin:bevel;fill-opacity:1"
     d="M 7 0.025390625 A 6.9734721 6.9734721 0 0 0 0.025390625 7 A 6.9734721 6.9734721 0 0 0 7 13.972656 A 6.9734721 6.9734721 0 0 0 13.972656 7 A 6.9734721 6.9734721 0 0 0 7 0.025390625 z M 7.0664062 1.8476562 L 11.435547 4.3554688 L 7.0664062 6.6914062 L 2.7207031 4.3554688 L 7.0664062 1.8476562 z M 2.7421875 5.71875 L 6.4394531 7.7304688 L 6.4179688 12.097656 L 2.7207031 9.9785156 L 2.7421875 5.7402344 L 2.7421875 5.71875 z M 11.414062 5.71875 L 11.414062 9.9785156 L 7.7148438 12.097656 L 7.6933594 7.6855469 L 11.414062 5.71875 z " />
</svg>

<svg aria-hidden="true" viewBox="0 0 14 14" xmlns="http://www.w3.org/2000/svg"><path style="fill:#fff;stroke-width:1.5;stroke-linejoin:bevel;fill-opacity:1" d="M7 0a7 7 0 0 0-7 7 7 7 0 0 0 7 7 7 7 0 0 0 7-7 7 7 0 0 0-7-7zm0 1.8 4.4 2.6-4.3 2.3-4.4-2.3 4.4-2.6zm-4.3 4 3.7 2V12l-3.7-2V5.7zm8.7 0V10l-3.7 2V7.7l3.7-2z"/></svg>
